X: 11363
T: The HIGHLANDMAN KISS'D HIS MOTHER.
Q: "Reel."
%R: reel
B: W. Hamilton "Universal Tune-Book" Vol. 1 Glasgow 1844 p.136 #3
S: http://imslp.org/wiki/Hamilton's_Universal_Tune-Book_(Various)
Z: 2016 John Chambers <jc:trillian.mit.edu>
M: C
L: 1/8
K: D
% - - - - - - - - - - - - - - - - - - - - - - - - -
|:\
daaf adaf | daaf ecAc |\
daaf adaf | bgaf ecAc :|\
|:\
dfBf dfBf | dfBf e/d/c/B/ Ac |\
dfBf dfBa | bgaf ecAc :|
% - - - - - - - - - - - - - - - - - - - - - - - - -

%%sep 1 1 500
%%sep 1 1 500

